packages/clay-css/src/images/icons/flags-rw-RW.svg

<!--
* SPDX-FileCopyrightText: © 2020 Liferay, Inc. <https://liferay.com>
* SPDX-FileCopyrightText: © 2020 Contributors to the project Clay <https://github.com/liferay/clay/graphs/contributors>
*
* SPDX-License-Identifier: BSD-3-Clause
-->
<svg width="16" height="16" viewBox="0 0 16 16" fill="none" xmlns="http://www.w3.org/2000/svg">
<path d="M16 2H0V14H16V2Z" fill="#C0CFD8"/>
<path d="M15.5 7.5H0.5V10.5H15.5V7.5Z" fill="#FAD201"/>
<path d="M15.5 10.5H0.5V13.5H15.5V10.5Z" fill="#20603E"/>
<path d="M15.5 2.5H0.5V7.5H15.5V2.5Z" fill="#1AA1DF"/>
<path d="M12.75 6.25C13.4404 6.25 14 5.69036 14 5C14 4.30964 13.4404 3.75 12.75 3.75C12.0596 3.75 11.5 4.30964 11.5 5C11.5 5.69036 12.0596 6.25 12.75 6.25Z" fill="#FAD201"/>
</svg>

<!--
* SPDX-FileCopyrightText: © 2022 Liferay, Inc. <https://liferay.com>
* SPDX-FileCopyrightText: © 2022 Contributors to the project Clay <https://github.com/liferay/clay/graphs/contributors>
*
* SPDX-License-Identifier: BSD-3-Clause
-->

<svg viewBox="0 0 16 16" xmlns="http://www.w3.org/2000/svg"><path d="M16 2H0v12h16V2Z" fill="#C0CFD8"/><path d="M15.5  7.5H.5v3h15v-3Z" fill="#FAD201"/><path d="M15.5 10.5H.5v3h15v-3Z" fill="#20603E"/><path d="M15.5 2.5H.5v5h15v-5Z" fill="#1AA1DF"/><path d="M12.75 6.25a1.25 1.25 0 1 0 0-2.5 1.25 1.25 0 0 0 0 2.5Z" fill="#FAD201"/></svg>
